X:1
T:Surrexit Christus
T:Surrexit Christus
T:Seth Calvisius
T:Source : Harmonia-Cantionum Ecclesiasticarum---Leipzig---F.Schnelboltz---1597. Editor : André Vierendeels ( 05/12/14). 
T:Notes : Original clefs  C1, C2, C3, F3 (notated F4 in original print) Original note values have been halved Editorial accidentals above the staff Square brackets indicate ligatures Dotted brackets indicate black notes Original text middle German  
T:German text :   Erstanden ist des heilige Christ, alleluia der aller Welt ein Tröster ist, alleluia Der nun der Todt erlidten hat, alleluia umb unser aller Missethat, alleluia Die Frauen kamen zu dem Grab, alleluia sie brachten salben mit scich dar, alleluia Nun sagets sein Jüngern zu dieser frist, alleluia das Christus heut erstanden is, alleluia Fûr solche Osterliche zeit, alleluia Sey Gott gelobet in ewigkeit, allaluia. 
C:Seth Calvisius
%%score [ 1 2 3 4 ]
L:1/8
Q:1/4=120
M:3/2
K:F
V:1 treble nm="Cantus" snm="C"
V:2 treble nm="Altus" snm="A"
V:3 treble-8 nm="Tenor" snm="T"
V:4 bass nm="Bassus" snm="B"
V:1
 z4 z4 G4 | B8 B4 | d8 B4 | B8 A4- | A4 G8 | A8 c4 | c4 d8 | c8 d4 | B8 A4 | B8 B4 | d6 c2 B4 | %11
w: Sur-|re- xit|Chri- stus|ho- *|* di|e, al-|le- lu-|ia, al-|le- lu-|ia, hu-|ma- * no|
w: Mor-|tem qui|pas- sus|pri- *|* di-|e, *||||* mi-|ser- * ri-|
w: Mu-|li- e-|res ad|tu- *|* mu-|lum, *||||* por-|ta- * *|
w: Di-|sci- pu-|lis hoc-|di- *|* ci-|te, *||||* sur-|re- * xit|
w: In|hoc Pas-|cha- li|gau- *|* di-|o, *||||* be-|ne- * di-|
w: Lau-|de- tur|san- cta|Tri- *|* ni-|tas, *||||* De-|o * di-|
 A8 A4 | G8 G4 | A8 G4 | c12 | B4 A6 G2 |"^#" G8 F4 | G12 |] %18
w: pro- so-|la- mi-|ne, al-|le-||* lu-|ia.|
w: mo pro|ho- mi-|ne, *|||||
w: ve- runt|ma ti-|ca, *|||||
w: Chri- stus|ho- di-|e, *|||||
w: ca- mus|Do- mi-|no, *|||||
w: ca- mus|gra- ti-|as, *|||||
V:2
 z4 z4 D4 | G8 G4 | G8 G4 | G8 E4 | F8 E4 | F8 C4 | C4 F4 D4 | G8 D4 | G8 F4 | G8 G4 | F8 F4 | %11
w: Sur-|re- xit|Chri- stus|ho- *|* di-|e, al-|le- * lu-|ia, al-|le- lu-|ia, hu-|ma- no|
w: Mor-|tem qui|pas- sus|pri- *|* di-|e, *||||* mi-|ser- ri|
w: Mu-|li- e-|res ad|tu- *|* mu-|lum, *||||* por-|ta- ve-|
w: Di-|sci- pu-|lis hoc-|di- *|* ci-|te, *||||* sur-|re- xit|
w: In|hoc Pas-|cha- li|gau- *|* di-|o, *||||* be-|ne- di-|
w: Lau-|de- tur|san- cta|Tri- *|* ni-|tas, *||||* De-|o di-|
 F8 F4 | D8 E4 | F6 E2 D4 | C4 E4 F4 | G4 F8 | D4 D8 | D12 |] %18
w: pro- so-|la- mi-|ne, _ _|_ al- le-||* lu-|ia.|
w: mo pro|ho- mi-|ne, * *|||||
w: runt a-|a- ro-|ma- * ti-|ca, * *||||
w: Chri- stus|ho- di-|e, _ _|_ al- le-||* lu-|ia.|
w: ca- mus|Do- mi-|no, * *|||||
w: ca- mus|gra- ti-|as, * *|||||
V:3
 z4 z4 G4 | d8 d4 | d8 d4 | d8 c4 | A4 B8 | c8 f4 | f4 f8 | e8 d4 | d4 c8 | d8 d4 | d8 d4 | c8 A4 | %12
w: Sur-|re- xit|Chri- stus|ho- *|* di-|e, al-|le- lu-|ia, al-|le- lu-|ia, hu-|ma- no|pro- so-|
w: Mor-|tem qui|pas- sus|pri- *|* di-|e, *||||* mi-|ser- ri-|mo pro|
w: Mu-|li- e-|res ad|tu- *|* mu-|lum, *||||* por-|ta- ve-|runt a-|
w: Di-|sci- pu-|lis hoc|di- *|* ci-|te, *||||* sur-|re- xit|Chri- stus|
w: In|hoc Pas-|cha- li|gau- *|* di-|o, *||||* be-|ne- di-|ca- mus|
w: Lau-|de- tur|san- cta|Tri- *|* ni-|tas, *||||* De-|o di-|ca- mus|
 B6 A2 G4 | F8 G4 | A6 B2 c4 | d8 c4 | B4 A8 | G12 |] %18
w: la- * mi-|ne, al-|le- * *||* lu-|ia.|
w: ho- * mi-|ne, *|||||
w: ro- ma- ti-|ca, *|||||
w: ho- * di-|e, *|||||
w: Do- * mi-|no, *|||||
w: gra- * ti-|as, *|||||
V:4
 z4 z4 G,4 | G,8 G,4 | G,8 G,4 | G,8 A,4 | F,4 G,8 | F,8 A,4 | A,4 B,8 | C8 B,4 | G,4 A,8 | %9
w: Sur-|re- xit|Chri- stus|ho- *|* di-|e, al-|le- lu-|ia, al-|le- lu-|
w: Mor-|tem qui|pas- sus|pri- *|* di-|e, *||||
w: Mu-|li- e-|res ad|tu- *|* mu-|lum, *||||
w: Di-|sci- pu-|lis hoc|di- *|* ci-|te, *||||
w: In|hoc Pas-|cha- li|gau- *|* di-|o, *||||
w: Lau-|de- tur|san- cta|Tri- *|* ni-|tas, *||||
 G,8 G,4 | B,8 B,4 | F,8 F,4 | G,6 A,2 B,4 | C8 B,4 | C4 A,8 | G,4 D,4 F,4 | G,4 D,8 | G,12 |] %18
w: ia, hu-|ma- no|pro- so-|la- * mi|ne, al|le- *||* lu-|ia.|
w: * mi-|ser- ri|mo pro|ho- * mi-|ne, *|||||
w: * por-|ta- ve-|runt a-|ro- ma- ti-|ca, *|||||
w: * sur-|re- xit|Chri- stus|ho- * di-|e, *|||||
w: * be-|ne- di-|ca- mus|Do- * mi-|no. *|||||
w: * De-|o di-|ca- mus|gra- * ti-|as, *|||||

